svgs/sharp-light/billboard.svg

<svg xmlns="http://www.w3.org/2000/svg" viewBox="0 0 640 512"><!--! Font Awesome Pro 6.6.0 by @fontawesome - https://fontawesome.com License - https://fontawesome.com/license (Commercial License) Copyright 2024 Fonticons, Inc. --><path d="M432 16l0-16L400 0l0 16 0 16L240 32l0-16 0-16L208 0l0 16 0 16L64 32 32 32l0 32 0 288L0 352l0 32 32 0 32 0 240 0 0 104 0 16 32 0 0-16 0-104 240 0 32 0 32 0 0-32-32 0 0-288 0-32-32 0L432 32l0-16zM336 352l-32 0L64 352 64 64l144 0 0 64-16 0-16 0 0 32 16 0 32 0 32 0 16 0 0-32-16 0-16 0 0-64 160 0 0 64-16 0-16 0 0 32 16 0 32 0 32 0 16 0 0-32-16 0-16 0 0-64 144 0 0 288-240 0z"/></svg>

<svg xmlns="http://www.w3.org/2000/svg" viewBox="0 0 640 512"><!--! Font Awesome Pro 6.4.2 by @fontawesome - https://fontawesome.com License - https://fontawesome.com/license (Commercial License) Copyright 2023 Fonticons, Inc. --><path d="M432 16V0H400V16 32H240V16 0H208V16 32H64 32V64 352H0v32H32 64 304V488v16h32V488 384H576h32 32V352H608V64 32H576 432V16zM336 352H304 64V64H208v64H192 176v32h16 32 32 16V128H256 240V64H400v64H384 368v32h16 32 32 16V128H448 432V64H576V352H336z"/></svg>
